X:598
T:Reel 598
M:4/4
K:Dmaj
L:1/8
A|d2AG FGAF|EFGA BEEc|d2AG FGAF|GBAG FDDc|dcAG FGAF|EFGA BABc|dcdA BdAF|GBAG FDD|G|FDA,D FGAF|EFGA BEEG|FDA,D FGAF|GBAG FDDE|FDAD FDAD|EFGA BABc|dcdA BdAF|GBAG FDD|
